img/Logo.svg

<svg width="200" height="200" viewBox="0 0 200 200" fill="none" xmlns="http://www.w3.org/2000/svg">
<g clip-path="url(#clip0_1428_4003)">
<path d="M55.4004 67.3001H96.4004C103.8 67.3001 109.9 61.2 109.9 53.8C109.9 46.4 103.8 40.3 96.4004 40.3C89.0004 40.3 82.9004 46.4 82.9004 53.8V113C82.9004 120.4 76.8004 126.5 69.4004 126.5C62.0004 126.5 55.9004 120.4 55.9004 113C55.9004 105.6 62.0004 99.5 69.4004 99.5H130.7C138.1 99.5 144.2 93.4 144.2 86C144.2 78.6 138.1 72.5 130.7 72.5C123.3 72.5 117.2 78.6 117.2 86V146.2C117.2 153.6 111.1 159.7 103.7 159.7C96.3004 159.7 90.2004 153.6 90.2004 146.2C90.2004 138.8 96.3004 132.7 103.7 132.7H140.9" stroke="#004C4C" stroke-width="13" stroke-miterlimit="10"/>
<path d="M100 13C148 13 187 52 187 100C187 148 148 187 100 187C52 187 13 148 13 100C13 52 52 13 100 13ZM100 0C44.8 0 0 44.8 0 100C0 155.2 44.8 200 100 200C155.2 200 200 155.2 200 100C200 44.8 155.2 0 100 0Z" fill="#004C4C"/>
</g>
<defs>
<clipPath id="clip0_1428_4003">
<rect width="200" height="200" fill="white"/>
</clipPath>
</defs>
</svg>

<?xml version="1.0" encoding="utf-8"?>
<!-- Generator: Adobe Illustrator 26.0.1, SVG Export Plug-In . SVG Version: 6.00 Build 0)  -->
<svg version="1.1" id="Layer_1" xmlns="http://www.w3.org/2000/svg" xmlns:xlink="http://www.w3.org/1999/xlink" x="0px" y="0px"
	 viewBox="0 0 200 200" style="enable-background:new 0 0 200 200;" xml:space="preserve">
<style type="text/css">
	.st0{fill:none;stroke:#000000;stroke-width:13;stroke-miterlimit:10;}
</style>
<path class="st0" d="M55.4,67.3h41c7.4,0,13.5-6.1,13.5-13.5l0,0c0-7.4-6.1-13.5-13.5-13.5l0,0c-7.4,0-13.5,6.1-13.5,13.5v59.2
	c0,7.4-6.1,13.5-13.5,13.5l0,0c-7.4,0-13.5-6.1-13.5-13.5l0,0c0-7.4,6.1-13.5,13.5-13.5h61.3c7.4,0,13.5-6.1,13.5-13.5l0,0
	c0-7.4-6.1-13.5-13.5-13.5l0,0c-7.4,0-13.5,6.1-13.5,13.5v60.2c0,7.4-6.1,13.5-13.5,13.5l0,0c-7.4,0-13.5-6.1-13.5-13.5l0,0
	c0-7.4,6.1-13.5,13.5-13.5h37.2"/>
<g>
	<path d="M100,13c48,0,87,39,87,87s-39,87-87,87s-87-39-87-87S52,13,100,13 M100,0C44.8,0,0,44.8,0,100c0,55.2,44.8,100,100,100
		c55.2,0,100-44.8,100-100C200,44.8,155.2,0,100,0L100,0z"/>
</g>
</svg>
